24x24/apps/netradiant.svg

<svg xmlns="http://www.w3.org/2000/svg" width="24" height="24" version="1.1">
 <rect style="opacity:0.20018999" width="20" height="20" x="2" y="2.5" rx="1" ry="1"/>
 <rect style="fill:#f4f4f7" width="20" height="20" x="2" y="2" rx="1" ry="1"/>
 <path style="opacity:0.1" d="M 11,4.499953 5,7.7597186 v 2.3769534 1.166015 l 0.5390625,0.275391 C 5.8939175,11.39471 6.4804688,11.02925 6.4804688,11.02925 L 7,11.509719 v 4.162109 l 1.5,0.361328 1.515625,-0.537109 V 12.642531 L 11,14.499953 h 2.015625 L 15,13.585891 v 6.066406 L 15.992188,20.248 17,19.613234 v -6.93164 l 2,-1.388672 V 10.093703 8.9140155 L 18,7.1835468 V 8.937453 9.468703 L 13.015625,12.3105 11.146484,10.783156 10.015625,11.431594 15,8.5194842 V 6.9354999 L 14.53125,6.3612811 15,6.9315936 V 5.7284686 L 14.017578,4.843703 13,5.4120624 V 4.499953 Z m 0,3 h 1.611328 l -2.595703,1.5039062 z m 2.5,0.6210938 -3.484375,2.1406252 v -0.0059 z"/>
 <path style="opacity:0.2;fill:#f4f4f7" d="M 3,2 C 2.446,2 2,2.4460001 2,3 v 0.5 c 0,-0.554 0.446,-1 1,-1 h 18 c 0.554,0 1,0.446 1,1 V 3 C 22,2.446 21.554,2 21,2 Z"/>
 <path style="fill:#9e9d24" d="m 11,4.0000048 1.999993,-9.6e-6 L 13,6 h -1.999993 z"/>
 <path style="fill:#8e24aa" d="m 11,14 -1.000015,-1.887153 1.002942,-0.506596 1.55e-4,0.916697 0.862613,0.521947 z m 6.999993,-5.563057 0.425777,0.8528385 -0.425763,0.281195 z"/>
 <path style="fill:#b71c1c" d="m 14.999992,12.251661 -1.983639,0.793226 v -1.234321 l 4.98364,-2.8412155 v 1.2728205 l -1.991961,1.3772 v 6.921375 l -1.00804,0.611763 z M 6.9998643,8.218529 5.0000005,9.636323 V 7.259898 L 11,4.0000048 11.000007,6 8.5,7.570293 V 14.58919 L 6.9998643,15.171786 Z M 10.016319,8.504839 13.5,6.4849385 V 7.62091 l -3.483667,2.1346875 z"/>
 <path style="fill:#283593" d="m 14.999992,19.152509 0.991973,-0.608442 1.008042,0.569438 L 15.991965,19.748 Z M 6.9998643,15.171786 8.5,14.58919 10.016333,14.995161 8.5,15.533 Z M 11,14 11.865695,13.044896 h 1.150658 l 1.98364,-0.793235 1.5e-5,0.833339 L 13.016353,14 Z M 10.016333,10.932115 V 9.7617675 L 13.5,7.62091 V 6.4849385 L 12.682,7 H 11 L 10.016319,8.504839 8.5,7.570293 11,6 h 2 l 0.5,0.4849385 1.030552,-0.623373 0.469455,0.5744785 -1.4e-5,1.583956 -4.98366,2.912116 0.986594,0.674136 -1.002942,0.506595 z m 5.991699,0.687255 1.991961,-1.3772 1.4e-5,-0.6711935 L 18.42577,9.2897815 19,9.593795 v 1.199046 l -2.000007,1.389388 z M 5.0000145,10.802711 5.0000005,9.636323 6.9998643,8.218529 v 2.79061 L 6.4802955,10.528952 c 0,0 -0.5858765,0.365334 -0.9407315,0.548702 z"/>
 <path style="fill:#2e7d32" d="m 15.99197,18.544067 0.01606,-6.924696 0.991961,0.562858 v 6.931276 z M 8.5,14.58919 V 7.570293 l 1.516319,0.934546 7.5e-5,6.490322 z m 2.503082,-2.066242 -1.55e-4,-0.916697 -0.986594,-0.674136 1.129682,-0.648615 1.870338,1.527065 v 1.234321 l -1.150658,9e-6 z M 6.5341358,9.6033655 6.9998643,9.389909 V 9.9601345 L 6.5341358,10.166904 Z M 18.42577,9.2897815 17.999993,8.436943 V 6.6840615 L 19,8.41443 l -1e-6,1.179365 z M 13,6 l -7e-6,-1.0871625 1.018319,-0.5683457 0.981681,0.8848302 V 6.431273 L 14.530552,5.8615655 13.5,6.4849385 Z"/>
</svg>

<svg xmlns="http://www.w3.org/2000/svg" width="24" height="24"><rect style="opacity:.20018999" width="20" height="20" x="2" y="2.5" rx="1" ry="1"/><rect style="fill:#f4f4f7" width="20" height="20" x="2" y="2" rx="1" ry="1"/><path style="opacity:.1" d="M11 4.5 5 7.76V11.303l.54.275c.354-.183.94-.549.94-.549l.52.48v4.163l1.5.361 1.516-.537v-2.853L11 14.5h2.016L15 13.586v6.066l.992.596L17 19.613v-6.931l2-1.39V8.915l-1-1.73v2.285l-4.984 2.841-1.87-1.527-1.13.649L15 8.519V6.935l-.469-.574.469.57V5.729l-.982-.884L13 5.412V4.5zm0 3h1.611l-2.595 1.504zm2.5.621-3.484 2.14v-.005z"/><path style="opacity:.2;fill:#f4f4f7" d="M3 2c-.554 0-1 .446-1 1v.5c0-.554.446-1 1-1h18c.554 0 1 .446 1 1V3c0-.554-.446-1-1-1z"/><path style="fill:#9e9d24" d="M11 4h2v2h-2z"/><path style="fill:#8e24aa" d="m11 14-1-1.887 1.003-.507v.917l.863.522zm7-5.563.426.853L18 9.57z"/><path style="fill:#b71c1c" d="m15 12.252-1.984.793V11.81L18 8.969v1.273l-1.992 1.377v6.922L15 19.153zM7 8.219 5 9.636V7.26L11 4v2L8.5 7.57v7.02l-1.5.582zm3.016.286 3.484-2.02V7.62l-3.484 2.135z"/><path style="fill:#283593" d="m15 19.153.992-.609 1.008.57-1.008.634zm-8-3.981 1.5-.583 1.516.406-1.516.538zM11 14l.866-.955h1.15L15 12.252v.833L13.016 14zm-.984-3.068v-1.17L13.5 7.62V6.485L12.682 7H11l-.984 1.505L8.5 7.57 11 6h2l.5.485 1.03-.623.47.574V8.02l-4.984 2.912.987.674-1.003.507zm5.992.687L18 10.242v-.671l.426-.281.574.304v1.199l-2 1.39zM5 10.803V9.636L7 8.22v2.79l-.52-.48s-.586.365-.94.549z"/><path style="fill:#2e7d32" d="m15.992 18.544.016-6.925.992.563v6.932zM8.5 14.59V7.57l1.516.935v6.49zm2.503-2.066v-.917l-.987-.674 1.13-.649 1.87 1.528v1.234h-1.15zm-4.469-2.92L7 9.39v.57l-.466.207zm11.892-.313L18 8.437V6.684l1 1.73v1.18zM13 6V4.913l1.018-.569.982.885v1.202l-.47-.57-1.03.624z"/></svg>
